icons/mariadb-icon.svg

<?xml version="1.0" encoding="UTF-8"?>
<svg width="256px" height="170px" viewBox="0 0 256 170" version="1.1" xmlns="http://www.w3.org/2000/svg" xmlns:xlink="http://www.w3.org/1999/xlink" preserveAspectRatio="xMidYMid">
    <g>
        <path d="M250.382523,0.00447241672 C246.426131,0.130891567 247.677353,1.27087056 239.128415,3.37469592 C230.495553,5.49917829 219.950359,4.84773528 210.654095,8.74649903 C182.903099,20.3847485 177.335232,60.1626339 152.106938,74.4118517 C133.249415,85.0635193 114.223916,85.9130759 97.1188786,91.2730771 C85.8778244,94.7980074 73.5811418,102.026905 63.3964279,110.803626 C55.49096,117.618586 55.2845466,123.610697 47.0245784,132.158212 C38.1894743,141.300822 11.9101646,132.312705 0,146.305625 C3.83670733,150.185042 5.51875114,151.271649 13.0796841,150.265122 C11.5142932,153.232113 2.28663486,155.732479 4.09296236,160.097129 C5.99360595,164.689675 28.3022154,167.802917 48.5816837,155.559279 C58.0261053,149.857249 65.5486285,141.638595 80.2576532,139.676806 C99.2917078,137.139881 121.218611,141.30404 143.253683,144.481588 C139.986431,154.22355 133.426672,160.702176 128.172006,168.461009 C126.544787,170.213508 131.440311,170.409956 137.025262,169.350783 C147.071883,166.866533 154.312169,164.86632 161.894457,160.453039 C171.209327,155.030397 172.62088,141.127864 184.04984,138.119701 C190.417778,147.907219 207.737102,150.219223 218.48411,142.390618 C209.053925,139.721295 206.447626,119.648695 209.630855,110.803626 C212.646122,102.431204 215.625486,89.0383196 218.662065,77.9709494 C221.922199,66.0849867 223.124932,51.1038191 227.070434,45.0492956 C233.00651,35.9401552 239.565643,32.81205 245.260156,27.675489 C250.954656,22.538928 256.166954,17.538894 255.995904,5.78538669 C255.940809,1.99964564 253.983391,-0.11060033 250.382523,0.00447241672 L250.382523,0.00447241672 Z" fill="#002B64"></path>
        <path d="M241.905484,6.96809574 C242.853676,10.2001831 244.337002,11.6835082 250.750076,12.2768382 C249.813239,20.407447 244.389521,24.8545834 238.308598,29.1214497 C232.957272,32.8744751 227.094944,36.4883945 223.327724,42.3507224 C219.46824,48.3564147 217.01827,68.9100487 211.033869,89.2081817 C205.861394,106.746904 198.050161,124.088323 184.409248,131.686638 C182.98412,128.099688 184.590937,121.479374 181.756296,119.303358 C179.922367,124.53403 177.848551,129.524816 175.419872,134.163578 C167.415594,149.462409 155.564607,160.917369 135.760443,164.414894 C145.157201,151.699462 154.142319,138.568131 154.336783,116.651825 C147.723566,118.082631 147.864092,133.703676 141.069185,137.879698 C136.712894,138.353794 132.299824,138.350955 127.858366,138.084099 C109.618435,136.991122 90.9072468,131.509207 73.84404,136.984025 C62.2258429,140.71292 52.7240456,149.509251 42.8858386,153.776117 C31.323,158.791033 22.5664139,160.853494 8.16751449,158.791033 C6.33926307,156.328288 18.7055102,153.150139 17.9659769,147.803072 C12.3307609,147.179933 9.058929,148.545444 4.16040754,146.319747 C4.70121793,145.323293 5.49610985,144.492915 6.49682201,143.801643 C15.4748424,137.587291 40.9766785,142.333932 47.8013935,135.632709 C52.0143206,131.499271 54.7779895,127.172788 57.6396004,122.966958 C60.4146249,118.886039 63.2833331,114.918677 67.6538192,111.343083 C69.2677337,110.022994 71.0221737,108.71852 72.8844919,107.445273 C80.3323453,102.348029 89.5459944,97.7248808 98.6134401,94.5382159 C110.965493,90.1961188 123.482202,89.8384174 136.647599,84.8078871 C144.781047,81.6992919 153.625639,77.8596801 160.835025,72.4870623 C162.546881,71.2095575 164.166473,69.8483051 165.663993,68.3891106 C186.250274,48.3209285 190.331193,12.9212684 222.449085,9.62246697 C226.3327,9.22360156 229.512267,9.3527715 232.406525,9.26476561 C235.742233,9.16540412 238.694688,8.77789431 241.905484,6.96809574 Z M202.75118,120.267107 C203.134432,126.40197 206.695831,138.573752 209.839913,141.531886 C203.682339,143.029405 193.074791,140.555304 190.353705,136.211788 C191.751863,129.940658 199.027963,124.2075 202.75118,120.267107 Z" fill="#C49A6C" fill-rule="nonzero"></path>
        <path d="M244.218787,13.8370641 C242.980829,16.4335799 240.610981,19.7812981 240.610981,26.3910072 C240.60081,27.5258023 239.749351,28.3031588 239.734821,26.5537435 C239.798753,20.0936937 241.508937,17.3010225 243.32519,13.6307377 C244.169385,12.12688 244.677936,12.7473121 244.218787,13.8370641 Z M242.972111,12.8591933 C241.511843,15.3365629 237.995576,19.8554012 237.414375,26.4404093 C237.306853,27.5693924 236.388555,28.2682867 236.528044,26.5232305 C237.161553,20.0951467 239.97166,16.0717822 242.104668,12.5744048 C243.072368,11.1519152 243.527158,11.8144844 242.972111,12.8591933 Z M241.835862,11.5631149 C240.172174,13.9082613 234.759739,19.3352263 233.62785,25.8490372 C233.42443,26.9634903 232.450918,27.5853754 232.73716,25.8577553 C233.90828,19.5037746 238.573871,14.5098044 240.993121,11.2071293 C242.077061,9.86891382 242.473731,10.5678081 241.835862,11.5631149 Z M240.821667,10.1173773 L240.274318,10.6995682 C237.854262,13.2941372 232.232203,19.6224619 230.358594,25.4145894 C229.99825,26.4898114 228.947729,26.9693023 229.475169,25.2983492 C231.526809,19.17249 237.177536,12.5744048 240.037045,9.64515141 C241.299704,8.47257825 241.593211,9.22087463 240.821667,10.1173773 Z M211.771784,23.2321794 C213.025725,17.8458985 217.214732,15.391777 224.446326,15.9904141 C226.191383,24.0298779 216.425752,27.2729799 211.771784,23.2321794 Z" fill="#002B64"></path>
    </g>
</svg>

<svg xmlns="http://www.w3.org/2000/svg" viewBox="0 0 256 170">
  <path fill="#002b64" d="M250.383.004c-3.957.127-2.706 1.267-11.255 3.37-8.632 2.125-19.178 1.474-28.474 5.372-27.75 11.639-33.319 51.417-58.547 65.666-18.858 10.652-37.883 11.501-54.988 16.861-11.241 3.525-23.538 10.754-33.723 19.53-7.905 6.816-8.111 12.808-16.371 21.355-8.836 9.143-35.115.155-47.025 14.148 3.837 3.879 5.519 4.966 13.08 3.96-1.566 2.966-10.793 5.466-8.987 9.831 1.9 4.593 24.21 7.706 44.489-4.538 9.444-5.702 16.967-13.92 31.676-15.882 19.034-2.537 40.96 1.627 62.996 4.805-3.268 9.742-9.827 16.22-15.082 23.979-1.627 1.753 3.268 1.949 8.853.89 10.047-2.484 17.287-4.485 24.87-8.898 9.314-5.423 10.726-19.325 22.155-22.333 6.368 9.787 23.687 12.1 34.434 4.27-9.43-2.669-12.036-22.741-8.853-31.586 3.015-8.373 5.994-21.766 9.031-32.833 3.26-11.886 4.463-26.867 8.408-32.922 5.937-9.109 12.496-12.237 18.19-17.374 5.695-5.136 10.907-10.136 10.736-21.89C255.94 2 253.983-.11 250.383.005z"/>
  <path fill="#c49a6c" d="M241.905 6.968c.949 3.232 2.432 4.716 8.845 5.309-.937 8.13-6.36 12.578-12.441 16.844-5.352 3.753-11.214 7.367-14.981 13.23-3.86 6.005-6.31 26.559-12.294 46.857-5.173 17.539-12.984 34.88-26.625 42.479-1.425-3.587.182-10.208-2.653-12.384-1.834 5.231-3.907 10.222-6.336 14.86-8.004 15.3-19.855 26.754-39.66 30.252 9.397-12.716 18.382-25.847 18.577-47.763-6.613 1.43-6.473 17.052-13.268 21.228-4.356.474-8.77.471-13.21.204-18.24-1.093-36.952-6.575-54.015-1.1-11.618 3.729-21.12 12.525-30.958 16.792-11.563 5.015-20.32 7.077-34.718 5.015-1.829-2.463 10.538-5.64 9.798-10.988-5.635-.623-8.907.742-13.806-1.483.541-.997 1.336-1.827 2.337-2.518 8.978-6.215 34.48-1.468 41.304-8.17 4.213-4.133 6.977-8.46 9.839-12.665 2.775-4.081 5.643-8.048 10.014-11.624a76.27 76.27 0 0 1 5.23-3.898c7.448-5.097 16.662-9.72 25.73-12.907 12.351-4.342 24.868-4.7 38.034-9.73 8.133-3.109 16.978-6.948 24.187-12.32a48.283 48.283 0 0 0 4.829-4.099c20.586-20.068 24.667-55.468 56.785-58.767 3.884-.398 7.063-.27 9.958-.357 3.335-.1 6.288-.487 9.498-2.297zm-39.154 113.3c.383 6.134 3.945 18.306 7.089 21.264-6.158 1.497-16.765-.977-19.486-5.32 1.398-6.271 8.674-12.004 12.397-15.945z"/>
  <path fill="#002b64" d="M244.219 13.837c-1.238 2.597-3.608 5.944-3.608 12.554-.01 1.135-.862 1.912-.876.163.064-6.46 1.774-9.253 3.59-12.923.844-1.504 1.353-.884.894.206zm-1.247-.978c-1.46 2.478-4.976 6.996-5.558 13.581-.107 1.13-1.025 1.828-.886.083.634-6.428 3.444-10.451 5.577-13.949.967-1.422 1.422-.76.867.285zm-1.136-1.296c-1.664 2.345-7.076 7.772-8.208 14.286-.204 1.114-1.177 1.736-.89.009 1.17-6.354 5.836-11.348 8.255-14.65 1.084-1.34 1.48-.64.843.355zm-1.014-1.446-.548.583c-2.42 2.594-8.042 8.922-9.915 14.715-.36 1.075-1.411 1.554-.884-.117 2.052-6.126 7.703-12.724 10.562-15.653 1.263-1.172 1.556-.424.785.472zm-29.05 13.115c1.254-5.386 5.443-7.84 12.674-7.242 1.745 8.04-8.02 11.283-12.674 7.242z"/>
</svg>
